assets/img/form-img-3.svg

<svg width="66" height="66" viewBox="0 0 66 66" fill="none" xmlns="http://www.w3.org/2000/svg">
<circle cx="32.7699" cy="32.7699" r="32.7699" fill="#FF7D34"/>
<g clip-path="url(#clip0_1_858)">
<path d="M52.4383 32.1173C52.823 32.9993 53.2364 33.8457 53.5621 34.7259C53.7285 35.1759 53.8037 35.683 53.8072 36.1669C53.8233 37.9471 53.8645 39.7326 53.7553 41.5074C53.6587 43.0983 52.7443 44.2339 51.3037 44.9071C50.9762 45.0588 50.8796 45.2249 50.8903 45.5659C50.9154 46.3819 50.9029 47.1997 50.8975 48.0157C50.885 49.7102 49.7558 50.8351 48.0665 50.8422C47.1878 50.8458 46.3092 50.8458 45.4305 50.8422C43.7395 50.8368 42.6067 49.7119 42.5942 48.0193C42.587 47.1443 42.5942 46.2677 42.5942 45.357H22.3853C22.3853 46.023 22.3942 46.6997 22.3817 47.3765C22.3727 47.8354 22.3817 48.3032 22.2958 48.7495C22.0685 49.9476 20.9984 50.8154 19.7457 50.8386C18.7776 50.8565 17.8095 50.8493 16.8414 50.8422C15.2541 50.8315 14.1124 49.7119 14.0819 48.1264C14.0641 47.2497 14.073 46.3748 14.0819 45.4981C14.0837 45.2874 14.0533 45.1499 13.8243 45.0588C12.1582 44.4089 11.2348 43.1644 11.1704 41.4038C11.1024 39.5665 11.1346 37.7221 11.2044 35.883C11.2527 34.6117 11.7699 33.4707 12.4803 32.4208C12.5287 32.3494 12.5734 32.2744 12.6718 32.1191C12.2656 32.1191 11.9202 32.1226 11.5731 32.1191C10.324 32.1048 9.60997 31.387 9.60639 30.1443C9.60639 29.7729 9.60102 29.4015 9.60639 29.0301C9.62428 28.0088 10.3544 27.2553 11.378 27.2338C12.271 27.2142 13.1657 27.2053 14.0587 27.2428C14.4166 27.257 14.7691 27.407 15.17 27.5088C15.2058 27.4106 15.2666 27.2481 15.3203 27.0821C15.8911 25.3215 16.3886 23.5324 17.049 21.8058C17.7039 20.0935 19.0693 19.2186 20.9036 19.1221C21.6909 19.0811 22.4819 19.0954 23.2711 19.1186C23.6057 19.1275 23.765 19.0489 23.8562 18.699C24.1121 17.7259 24.411 16.7635 24.7063 15.801C25.0373 14.7208 25.8372 14.128 26.9575 14.1262C30.651 14.1226 34.3445 14.1226 38.0381 14.1262C39.1297 14.1262 39.9368 14.7244 40.2607 15.776C40.5649 16.767 40.8512 17.7634 41.1465 18.7579C41.1805 18.8704 41.2198 18.9793 41.2646 19.1096C42.0967 19.1096 42.9145 19.1079 43.7323 19.1096C45.928 19.1168 47.4652 20.2345 48.1345 22.3147C48.6696 23.9788 49.1975 25.6429 49.7307 27.3088C49.7576 27.391 49.7934 27.4695 49.7826 27.4427C50.3785 27.366 50.9225 27.2624 51.4701 27.2338C52.1537 27.1981 52.8409 27.2178 53.5245 27.2285C54.6268 27.2463 55.3569 27.9891 55.3659 29.0926C55.3695 29.464 55.3677 29.8354 55.3659 30.2068C55.3587 31.3602 54.6358 32.0887 53.469 32.1137C53.104 32.1208 52.7389 32.1137 52.4365 32.1137L52.4383 32.1173ZM50.3553 32.0369C49.9383 32.7851 49.5858 33.4707 49.1831 34.1242C48.9451 34.5117 48.6713 34.8991 48.3367 35.2009C47.5386 35.9223 46.5561 36.1544 45.4914 36.1526C38.5946 36.1437 31.6979 36.149 24.8011 36.149C24.7116 36.149 24.6222 36.1508 24.5327 36.1472C24.1175 36.124 23.8294 35.8598 23.8222 35.4991C23.8151 35.1598 24.0781 34.8724 24.4629 34.8188C24.6096 34.7974 24.7599 34.8081 24.9085 34.8081C27.8719 34.8081 30.8371 34.8081 33.8005 34.8081C37.7035 34.8081 41.6064 34.8045 45.5093 34.8099C46.3146 34.8099 47.1198 34.6813 47.6084 34.0278C48.2132 33.2154 48.6678 32.2923 49.2708 31.2745C48.666 31.2192 48.2043 31.1388 47.7444 31.1388C37.571 31.1317 27.3959 31.1334 17.2225 31.1334C17.015 31.1334 16.802 31.1227 16.598 31.1549C16.3439 31.1942 16.0969 31.2727 15.7999 31.3459C16.1971 32.0601 16.5855 32.6922 16.913 33.3547C17.4212 34.3849 18.2766 34.792 19.3717 34.8081C19.9981 34.817 20.6226 34.8009 21.2489 34.8134C21.7464 34.8241 22.0292 35.0813 22.0309 35.4866C22.0327 35.8865 21.741 36.1437 21.2507 36.149C20.5653 36.1562 19.88 36.1651 19.1946 36.1437C17.6806 36.0937 16.5157 35.4544 15.7838 34.0956C15.4813 33.5332 15.1682 32.9779 14.855 32.4226C14.7924 32.3119 14.7136 32.2119 14.6295 32.0905C14.5347 32.1512 14.4649 32.1798 14.413 32.228C13.3554 33.1993 12.645 34.3885 12.5627 35.8205C12.4607 37.6274 12.4982 39.4415 12.4893 41.2521C12.4893 41.5003 12.5394 41.7556 12.6056 41.9966C12.9635 43.2644 13.9889 43.9822 15.4348 43.9822C26.7105 43.9822 37.988 43.9822 49.2637 43.9822C49.3979 43.9822 49.5321 43.9822 49.6663 43.975C51.1373 43.8732 52.3202 42.8198 52.4132 41.361C52.5116 39.8219 52.4723 38.2756 52.483 36.7311C52.4884 35.8598 52.3273 35.0206 51.964 34.2242C51.5936 33.41 51.1176 32.6726 50.3499 32.0405L50.3553 32.0369ZM15.841 29.8693C16.215 29.8407 16.5228 29.7943 16.8306 29.7996C17.117 29.805 17.2351 29.6997 17.321 29.4229C17.9204 27.4999 18.5414 25.584 19.1534 23.6663C19.6044 22.254 20.2826 21.7558 21.7733 21.7558C26.5244 21.7558 31.2755 21.7558 36.0267 21.7558C36.2056 21.7558 36.3846 21.7594 36.56 21.7844C36.9107 21.8362 37.1219 22.0951 37.0735 22.4004C37.0378 22.6307 36.8248 22.8771 36.6226 23.0235C36.4776 23.1289 36.2217 23.0967 36.0159 23.0967C31.2648 23.1003 26.5137 23.0985 21.7625 23.1003C20.8785 23.1003 20.6942 23.2396 20.424 24.0877C19.8728 25.8233 19.3234 27.5606 18.7722 29.2961C18.7257 29.4461 18.681 29.5961 18.6345 29.7514H46.3521C45.724 27.7784 45.1102 25.8465 44.4911 23.9163C44.2817 23.2664 44.049 23.1021 43.3458 23.1003C42.1987 23.095 41.0516 23.1021 39.9045 23.095C39.6988 23.095 39.4393 23.1146 39.3015 23.0057C39.119 22.8593 38.9221 22.5879 38.9328 22.3825C38.9436 22.1772 39.1798 21.954 39.3695 21.804C39.4751 21.7201 39.6844 21.7558 39.8473 21.7558C40.9944 21.7522 42.1414 21.7505 43.2885 21.7558C44.6754 21.7612 45.384 22.2879 45.8099 23.6199C46.4273 25.5519 47.0429 27.4856 47.6674 29.4158C47.7122 29.5515 47.8177 29.7514 47.9215 29.7693C48.3063 29.8336 48.7036 29.8354 49.1241 29.8639C49.0239 29.5497 48.9362 29.2676 48.8467 28.9872C48.1685 26.8571 47.5028 24.7216 46.8049 22.5968C46.3611 21.2451 45.3017 20.4559 43.9506 20.4542C36.3094 20.447 28.67 20.4488 21.0288 20.4542C19.7511 20.4542 18.6631 21.1773 18.2551 22.3879C17.423 24.8573 16.6517 27.3445 15.8428 29.8693H15.841ZM39.8365 19.0864C39.5341 18.0651 39.2514 17.0866 38.9507 16.1117C38.8165 15.6778 38.4962 15.4636 38.0417 15.4636C34.3338 15.4636 30.6277 15.4636 26.9199 15.4636C26.5083 15.4636 26.1808 15.6439 26.0538 16.0403C25.7352 17.0384 25.4453 18.0455 25.1339 19.0846H39.8365V19.0864ZM15.4277 45.3427C15.4277 46.3355 15.4044 47.2836 15.4348 48.2282C15.4599 48.971 16.0254 49.4888 16.7752 49.5013C17.7415 49.5155 18.7078 49.5138 19.6742 49.5013C20.3953 49.4923 20.9716 49.0334 21.0109 48.3282C21.0664 47.3425 21.0252 46.3516 21.0252 45.341H15.4277V45.3427ZM43.9453 45.332C43.9453 46.3498 43.9077 47.3265 43.9578 48.2996C43.9954 49.0227 44.5716 49.4923 45.3142 49.5013C46.2662 49.512 47.2183 49.512 48.1685 49.5013C48.9648 49.4923 49.5124 48.9585 49.5464 48.1692C49.5625 47.7854 49.55 47.3979 49.5518 47.0122C49.5518 46.4551 49.5518 45.898 49.5518 45.332H43.9453ZM12.6647 30.7746C13.0655 30.7746 13.4664 30.7871 13.8672 30.771C14.2698 30.7549 14.4846 30.5228 14.4882 30.1318C14.4917 29.7907 14.4917 29.4515 14.4864 29.1104C14.4792 28.7551 14.3038 28.5641 13.9334 28.5658C13.1174 28.5694 12.3014 28.5658 11.4836 28.5676C11.1203 28.5694 10.9432 28.7605 10.9467 29.1247C10.9503 29.4658 10.9432 29.805 10.9467 30.146C10.9539 30.6264 11.0953 30.7656 11.5945 30.7728C11.9506 30.7781 12.3068 30.7728 12.6629 30.7728L12.6647 30.7746ZM52.2826 28.5676C51.8817 28.5676 51.4809 28.5748 51.08 28.5658C50.6631 28.5551 50.4841 28.7623 50.4859 29.1604C50.4859 29.4854 50.502 29.8121 50.4805 30.1371C50.4537 30.5674 50.7275 30.7478 51.0675 30.7621C51.8817 30.796 52.6995 30.7799 53.5155 30.7692C53.8502 30.7638 54.0291 30.5764 54.0256 30.23C54.022 29.8604 54.022 29.4908 54.0256 29.1194C54.0291 28.7533 53.8466 28.5712 53.4833 28.5676C53.0825 28.5641 52.6816 28.5676 52.2808 28.5676H52.2826Z" fill="white"/>
<path d="M32.4875 42.5543C30.1647 42.5543 27.8437 42.5561 25.5209 42.5543C24.1287 42.5543 23.42 41.6401 23.7618 40.2956C23.9229 39.6653 24.0804 39.0314 24.2593 38.4065C24.4723 37.6655 25.0073 37.2405 25.7714 37.178C25.92 37.1655 26.0685 37.1655 26.217 37.1655C30.3991 37.1655 34.583 37.1655 38.7651 37.1655C40.0356 37.1655 40.517 37.5387 40.8427 38.7761C40.9894 39.335 41.1344 39.8938 41.2686 40.4545C41.5442 41.6133 40.8248 42.5471 39.6312 42.5525C37.2493 42.5632 34.8675 42.5561 32.4857 42.5561L32.4875 42.5543ZM32.4696 41.2151C34.778 41.2151 37.0865 41.2151 39.395 41.2151C39.998 41.2151 40.0571 41.1419 39.9139 40.5741C39.7922 40.0867 39.6383 39.6028 39.5506 39.1082C39.4665 38.6404 39.2411 38.494 38.7651 38.4958C35.2791 38.5154 31.7949 38.5065 28.309 38.5065C27.5502 38.5065 26.7897 38.5118 26.0309 38.5047C25.7321 38.5011 25.571 38.6136 25.503 38.9207C25.3813 39.4689 25.2203 40.0099 25.0807 40.5545C24.9375 41.1151 25.0145 41.2151 25.5871 41.2151C27.8813 41.2151 30.1736 41.2151 32.4678 41.2151H32.4696Z" fill="white"/>
<path d="M48.8812 36.8887C49.8743 36.8762 50.506 37.6297 50.2984 38.4886C50.1105 39.2653 49.8761 40.0295 49.665 40.8009C49.4967 41.4169 49.0726 41.7543 48.457 41.824C46.8769 42.0025 45.295 42.1739 43.7113 42.3203C42.7091 42.4132 42.0041 41.5008 42.3656 40.5598C42.6805 39.7456 43.0563 38.9546 43.4249 38.1618C43.62 37.744 43.9725 37.494 44.4306 37.4351C45.9481 37.2405 47.4692 37.0602 48.8812 36.887V36.8887ZM48.9688 38.2904C48.8543 38.2797 48.7953 38.2636 48.7398 38.2708C47.4299 38.4225 46.1182 38.5725 44.8082 38.7368C44.7152 38.7493 44.5953 38.8475 44.5541 38.9368C44.2499 39.5903 43.9618 40.2527 43.6701 40.908C43.7148 40.9312 43.7274 40.9437 43.7381 40.9419C45.227 40.7955 46.7176 40.6491 48.2065 40.4937C48.2745 40.4866 48.3711 40.408 48.389 40.3455C48.5877 39.6706 48.772 38.9939 48.967 38.2904H48.9688Z" fill="white"/>
<path d="M21.337 42.333C19.7247 42.1633 18.1123 42.0044 16.5035 41.8205C15.9023 41.7509 15.5014 41.3973 15.3332 40.8099C15.1256 40.085 14.9073 39.3618 14.723 38.6298C14.4528 37.5531 15.1542 36.7907 16.2745 36.921C17.6327 37.0781 18.991 37.237 20.3492 37.396C20.9165 37.462 21.371 37.6924 21.6144 38.2423C21.9436 38.9869 22.2962 39.7225 22.604 40.476C22.9995 41.442 22.3534 42.3705 21.3388 42.333H21.337ZM16.0132 38.2369C16.219 38.9708 16.3854 39.6136 16.5859 40.2457C16.6216 40.3564 16.7916 40.4814 16.9151 40.4992C17.6488 40.6028 18.3879 40.6796 19.1252 40.7581C19.8446 40.8349 20.5639 40.901 21.3495 40.9777C21.2189 40.6706 21.0847 40.4385 21.0185 40.1867C20.7375 39.1208 20.1613 38.5387 18.9534 38.5601C18.0014 38.5762 17.0475 38.3601 16.015 38.2387L16.0132 38.2369Z" fill="white"/>
<path d="M34.2252 16.9103C34.3827 16.6425 34.4901 16.389 34.6618 16.1926C34.7442 16.0979 34.9464 16.1086 35.0949 16.0711C35.1128 16.2086 35.2005 16.4068 35.1396 16.4729C34.6064 17.0621 34.5938 17.6174 35.1504 18.2013C35.2148 18.2691 35.1396 18.4709 35.1271 18.6102C34.9696 18.5655 34.7907 18.5512 34.6583 18.4655C34.5581 18.4013 34.5187 18.2441 34.4489 18.1299C34.3809 18.0192 34.3075 17.912 34.2163 17.771C34.0534 18.0388 33.9299 18.2959 33.751 18.5084C33.6758 18.5977 33.4843 18.5923 33.3466 18.6298C33.3197 18.4923 33.2911 18.3566 33.2696 18.2191C33.266 18.1977 33.2947 18.1656 33.3143 18.1441C33.8244 17.6192 33.8655 17.0943 33.3412 16.5461C33.2088 16.4086 33.0978 16.2193 33.3573 16.0676C33.6168 15.9158 33.7331 16.0711 33.844 16.2729C33.9568 16.4782 34.0838 16.6782 34.2234 16.9121L34.2252 16.9103Z" fill="white"/>
<path d="M32.0757 18.1407C31.7106 18.155 31.2704 17.9425 31.1792 18.5532C31.172 18.5996 30.9608 18.6692 30.8875 18.6353C30.7926 18.5924 30.662 18.4353 30.6817 18.3639C30.8821 17.6372 31.0915 16.9123 31.342 16.2016C31.444 15.9106 31.9558 15.9034 32.0614 16.1927C32.3173 16.8998 32.5302 17.6247 32.7342 18.3496C32.7557 18.4228 32.6287 18.5942 32.5374 18.6264C32.4515 18.6567 32.2869 18.5924 32.2189 18.5157C32.1383 18.4264 32.124 18.2764 32.0757 18.1389V18.1407ZM31.4458 17.6943C31.6659 17.6782 31.8019 17.6675 31.9612 17.655C31.8771 17.364 31.8091 17.1229 31.7411 16.8819C31.7142 16.8819 31.6892 16.8819 31.6623 16.8801C31.5961 17.1283 31.5299 17.3765 31.4458 17.6943Z" fill="white"/>
<path d="M29.2093 16.5445C29.0142 16.5356 28.8782 16.5641 28.7816 16.5142C28.6849 16.4642 28.5865 16.3445 28.5722 16.2427C28.5633 16.1749 28.6975 16.0213 28.7708 16.0196C29.2594 15.9981 29.7497 15.9999 30.2364 16.0196C30.308 16.0231 30.4243 16.1695 30.4261 16.2517C30.4297 16.3392 30.3402 16.4749 30.2561 16.5088C30.1416 16.5588 29.9949 16.5338 29.798 16.5445C29.798 17.0998 29.798 17.6551 29.798 18.2104C29.798 18.4157 29.8374 18.6514 29.5242 18.6639C29.1824 18.6782 29.2075 18.4282 29.2075 18.2033C29.2075 17.6605 29.2075 17.1159 29.2075 16.5427L29.2093 16.5445Z" fill="white"/>
<path d="M36.4263 17.3622C36.4263 17.6728 36.4514 17.9871 36.4138 18.2942C36.3977 18.4263 36.2689 18.6263 36.1597 18.6495C35.8895 18.7085 35.8662 18.4888 35.868 18.2781C35.8716 17.6407 35.8537 17.0033 35.8823 16.3676C35.8877 16.2462 36.0613 16.1337 36.1561 16.0159C36.2456 16.1391 36.3977 16.2533 36.4138 16.3837C36.4514 16.7051 36.4263 17.0336 36.4263 17.3604V17.3622Z" fill="white"/>
</g>
<defs>
<clipPath id="clip0_1_858">
<rect width="45.7649" height="36.7249" fill="white" transform="translate(9.60498 14.125)"/>
</clipPath>
</defs>
</svg>

<?xml version="1.0"?>
<svg width="66" height="66" xmlns="http://www.w3.org/2000/svg" xmlns:svg="http://www.w3.org/2000/svg">
 <defs>
  <clipPath id="clip0_1_858">
   <rect fill="white" height="36.72" id="svg_1" transform="translate(9.60498 14.125)" width="45.76"/>
  </clipPath>
 </defs>
 <g class="layer">
  <title>Layer 1</title>
  <circle cx="32.77" cy="32.77" fill="#6d9bc6" id="svg_2" r="32.77"/>
  <g clip-path="url(#clip0_1_858)" id="svg_3">
   <path d="m52.44,32.12c0.38,0.88 0.8,1.73 1.12,2.61c0.17,0.45 0.24,0.95 0.25,1.44c0.01,1.78 0.05,3.56 -0.05,5.34c-0.1,1.59 -1.02,2.72 -2.46,3.4c-0.32,0.15 -0.42,0.31 -0.41,0.66c0.03,0.81 0.01,1.63 0.01,2.45c-0.02,1.69 -1.14,2.82 -2.83,2.82c-0.88,0.01 -1.76,0.01 -2.64,0c-1.69,0 -2.82,-1.13 -2.84,-2.82c0,-0.88 0,-1.75 0,-2.66l-20.2,0c0,0.66 0,1.34 -0.01,2.02c-0.01,0.46 0,0.92 -0.08,1.37c-0.23,1.2 -1.3,2.07 -2.55,2.09c-0.97,0.02 -1.94,0.01 -2.91,0c-1.59,-0.01 -2.73,-1.13 -2.76,-2.71c-0.02,-0.88 -0.01,-1.76 0,-2.63c0,-0.21 -0.03,-0.35 -0.26,-0.44c-1.66,-0.65 -2.59,-1.9 -2.65,-3.66c-0.07,-1.83 -0.04,-3.68 0.03,-5.52c0.05,-1.27 0.57,-2.41 1.28,-3.46c0.05,-0.07 0.09,-0.15 0.19,-0.3c-0.4,0 -0.75,0 -1.1,0c-1.25,-0.02 -1.96,-0.73 -1.96,-1.98c0,-0.37 -0.01,-0.74 0,-1.11c0.01,-1.02 0.74,-1.77 1.77,-1.8c0.89,-0.02 1.79,-0.02 2.68,0.01c0.36,0.02 0.71,0.17 1.11,0.27c0.04,-0.1 0.1,-0.26 0.15,-0.43c0.57,-1.76 1.07,-3.55 1.73,-5.27c0.65,-1.72 2.02,-2.59 3.85,-2.69c0.79,-0.04 1.58,-0.02 2.37,0c0.34,0.01 0.5,-0.07 0.59,-0.42c0.25,-0.97 0.55,-1.94 0.85,-2.9c0.33,-1.08 1.13,-1.67 2.25,-1.67c3.69,-0.01 7.38,-0.01 11.08,0c1.09,0 1.9,0.59 2.22,1.65c0.3,0.99 0.59,1.98 0.89,2.98c0.03,0.11 0.07,0.22 0.11,0.35c0.84,0 1.65,0 2.47,0c2.2,0.01 3.74,1.12 4.4,3.2c0.54,1.67 1.07,3.33 1.6,5c0.03,0.08 0.06,0.16 0.05,0.13c0.6,-0.07 1.14,-0.18 1.69,-0.21c0.68,-0.03 1.37,-0.01 2.05,0c1.11,0.02 1.84,0.76 1.85,1.86c0,0.37 0,0.75 0,1.12c-0.01,1.15 -0.73,1.88 -1.9,1.9c-0.37,0.01 -0.73,0 -1.03,0l0,0.01zm-2.08,-0.08c-0.42,0.75 -0.77,1.43 -1.18,2.08c-0.23,0.39 -0.51,0.78 -0.84,1.08c-0.8,0.72 -1.78,0.95 -2.85,0.95c-6.9,-0.01 -13.79,0 -20.69,0c-0.09,0 -0.18,0 -0.27,0c-0.41,-0.03 -0.7,-0.29 -0.71,-0.65c0,-0.34 0.26,-0.63 0.64,-0.68c0.15,-0.02 0.3,-0.01 0.45,-0.01c2.96,0 5.93,0 8.89,0c3.9,0 7.81,-0.01 11.71,0c0.8,0 1.61,-0.13 2.1,-0.78c0.6,-0.81 1.06,-1.74 1.66,-2.76c-0.6,-0.05 -1.07,-0.13 -1.53,-0.13c-10.17,-0.01 -20.34,-0.01 -30.52,-0.01c-0.2,0 -0.42,-0.01 -0.62,0.02c-0.26,0.04 -0.5,0.12 -0.8,0.2c0.4,0.71 0.79,1.34 1.11,2c0.51,1.03 1.37,1.44 2.46,1.46c0.63,0.01 1.25,-0.01 1.88,0c0.5,0.01 0.78,0.27 0.78,0.68c0,0.4 -0.29,0.65 -0.78,0.66c-0.68,0.01 -1.37,0.02 -2.06,-0.01c-1.51,-0.05 -2.67,-0.69 -3.41,-2.04c-0.3,-0.57 -0.61,-1.12 -0.92,-1.68c-0.07,-0.11 -0.15,-0.21 -0.23,-0.33c-0.1,0.06 -0.17,0.09 -0.22,0.14c-1.05,0.97 -1.77,2.16 -1.85,3.59c-0.1,1.81 -0.06,3.62 -0.07,5.43c0,0.25 0.05,0.51 0.12,0.75c0.35,1.26 1.38,1.98 2.82,1.98c11.28,0 22.56,0 33.83,0c0.14,0 0.27,0 0.41,0c1.47,-0.11 2.65,-1.16 2.74,-2.62c0.1,-1.54 0.06,-3.08 0.07,-4.63c0.01,-0.87 -0.15,-1.71 -0.52,-2.51c-0.37,-0.81 -0.84,-1.55 -1.61,-2.18l0.01,0zm-34.52,-2.17c0.37,-0.03 0.68,-0.08 0.99,-0.07c0.29,0 0.41,-0.1 0.49,-0.38c0.6,-1.92 1.22,-3.84 1.83,-5.75c0.45,-1.42 1.13,-1.91 2.62,-1.91c4.75,0 9.51,0 14.26,0c0.18,0 0.35,0 0.53,0.02c0.35,0.06 0.56,0.32 0.51,0.62c-0.03,0.23 -0.25,0.48 -0.45,0.62c-0.14,0.11 -0.4,0.08 -0.6,0.08c-4.76,0 -9.51,0 -14.26,0c-0.88,0 -1.07,0.14 -1.34,0.99c-0.55,1.73 -1.1,3.47 -1.65,5.21c-0.04,0.15 -0.09,0.3 -0.14,0.45l27.72,0c-0.63,-1.97 -1.24,-3.9 -1.86,-5.83c-0.21,-0.65 -0.44,-0.82 -1.14,-0.82c-1.15,-0.01 -2.3,0 -3.45,-0.01c-0.2,0 -0.46,0.02 -0.6,-0.08c-0.18,-0.15 -0.38,-0.42 -0.37,-0.63c0.01,-0.2 0.25,-0.43 0.44,-0.58c0.11,-0.08 0.31,-0.04 0.48,-0.04c1.14,-0.01 2.29,-0.01 3.44,0c1.39,0 2.09,0.53 2.52,1.86c0.62,1.93 1.23,3.87 1.86,5.8c0.04,0.13 0.15,0.33 0.25,0.35c0.39,0.06 0.78,0.07 1.2,0.09c-0.1,-0.31 -0.18,-0.59 -0.27,-0.87c-0.68,-2.13 -1.35,-4.27 -2.05,-6.39c-0.44,-1.35 -1.5,-2.14 -2.85,-2.15c-7.64,0 -15.28,0 -22.92,0c-1.28,0 -2.37,0.73 -2.77,1.94c-0.84,2.47 -1.61,4.95 -2.42,7.48l0,0zm24,-10.78c-0.31,-1.02 -0.59,-2 -0.89,-2.98c-0.13,-0.43 -0.45,-0.65 -0.91,-0.65c-3.71,0 -7.41,0 -11.12,0c-0.41,0 -0.74,0.18 -0.87,0.58c-0.31,1 -0.6,2.01 -0.92,3.04l14.71,0l0,0.01zm-24.41,26.25c0,1 -0.03,1.94 0,2.89c0.03,0.74 0.6,1.26 1.35,1.27c0.96,0.02 1.93,0.01 2.89,0c0.73,-0.01 1.3,-0.47 1.34,-1.17c0.06,-0.99 0.02,-1.98 0.02,-2.99l-5.6,0l0,0zm28.52,-0.01c0,1.02 -0.04,2 0.01,2.97c0.04,0.72 0.61,1.19 1.35,1.2c0.96,0.01 1.91,0.01 2.86,0c0.79,-0.01 1.34,-0.54 1.38,-1.33c0.01,-0.38 0,-0.77 0,-1.16c0,-0.55 0,-1.11 0,-1.68l-5.6,0zm-31.29,-14.56c0.41,0 0.81,0.02 1.21,0c0.4,-0.02 0.61,-0.25 0.62,-0.64c0,-0.34 0,-0.68 0,-1.02c-0.01,-0.35 -0.19,-0.55 -0.56,-0.54c-0.81,0 -1.63,0 -2.45,0c-0.36,0 -0.54,0.19 -0.53,0.55c0,0.35 -0.01,0.68 0,1.03c0,0.48 0.15,0.62 0.64,0.62c0.36,0.01 0.72,0 1.07,0l0,0zm39.62,-2.2c-0.4,0 -0.8,0 -1.2,0c-0.42,-0.01 -0.6,0.19 -0.59,0.59c0,0.33 0.01,0.65 -0.01,0.98c-0.03,0.43 0.25,0.61 0.59,0.62c0.81,0.04 1.63,0.02 2.45,0.01c0.33,-0.01 0.51,-0.19 0.51,-0.54c-0.01,-0.37 -0.01,-0.74 0,-1.11c0,-0.37 -0.18,-0.55 -0.55,-0.55c-0.4,-0.01 -0.8,0 -1.2,0l0,0z" fill="white" id="svg_4"/>
   <path d="m32.49,42.55c-2.33,0 -4.65,0.01 -6.97,0c-1.39,0 -2.1,-0.91 -1.76,-2.25c0.16,-0.63 0.32,-1.27 0.5,-1.89c0.21,-0.74 0.75,-1.17 1.51,-1.23c0.15,-0.01 0.3,-0.01 0.45,-0.01c4.18,0 8.36,0 12.55,0c1.27,0 1.75,0.37 2.07,1.61c0.15,0.56 0.29,1.11 0.43,1.67c0.27,1.16 -0.45,2.1 -1.64,2.1c-2.38,0.01 -4.76,0.01 -7.14,0.01l0,-0.01zm-0.02,-1.33c2.31,0 4.62,0 6.93,0c0.6,0 0.66,-0.08 0.51,-0.65c-0.12,-0.48 -0.27,-0.97 -0.36,-1.46c-0.08,-0.47 -0.31,-0.62 -0.78,-0.61c-3.49,0.02 -6.98,0.01 -10.46,0.01c-0.76,0 -1.52,0 -2.28,-0.01c-0.3,0 -0.46,0.11 -0.53,0.42c-0.12,0.55 -0.28,1.09 -0.42,1.63c-0.14,0.57 -0.07,0.67 0.51,0.67c2.29,0 4.58,0 6.88,0l0,0z" fill="white" id="svg_5"/>
   <path d="m48.88,36.89c0.99,-0.01 1.63,0.74 1.42,1.6c-0.19,0.78 -0.42,1.54 -0.64,2.31c-0.16,0.62 -0.59,0.95 -1.2,1.02c-1.58,0.18 -3.16,0.35 -4.75,0.5c-1,0.09 -1.71,-0.82 -1.34,-1.76c0.31,-0.81 0.69,-1.61 1.05,-2.4c0.2,-0.42 0.55,-0.67 1.01,-0.72c1.52,-0.2 3.04,-0.38 4.45,-0.55l0,0zm0.09,1.4c-0.12,-0.01 -0.17,-0.03 -0.23,-0.02c-1.31,0.15 -2.62,0.3 -3.93,0.47c-0.09,0.01 -0.21,0.11 -0.26,0.2c-0.3,0.65 -0.59,1.31 -0.88,1.97c0.04,0.02 0.06,0.03 0.07,0.03c1.49,-0.14 2.98,-0.29 4.47,-0.45c0.06,0 0.16,-0.08 0.18,-0.14c0.2,-0.68 0.38,-1.36 0.58,-2.06l0,0z" fill="white" id="svg_6"/>
   <path d="m21.34,42.33c-1.62,-0.17 -3.23,-0.33 -4.84,-0.51c-0.6,-0.07 -1,-0.42 -1.17,-1.01c-0.2,-0.72 -0.42,-1.45 -0.61,-2.18c-0.27,-1.08 0.43,-1.84 1.55,-1.71c1.36,0.16 2.72,0.32 4.08,0.48c0.57,0.06 1.02,0.29 1.26,0.84c0.33,0.75 0.69,1.48 0.99,2.24c0.4,0.96 -0.25,1.89 -1.26,1.85l0,0zm-5.33,-4.09c0.21,0.73 0.38,1.37 0.58,2.01c0.03,0.11 0.2,0.23 0.33,0.25c0.73,0.1 1.47,0.18 2.21,0.26c0.71,0.07 1.43,0.14 2.22,0.22c-0.13,-0.31 -0.27,-0.54 -0.33,-0.79c-0.28,-1.07 -0.86,-1.65 -2.07,-1.63c-0.95,0.02 -1.9,-0.2 -2.93,-0.32l-0.01,0z" fill="white" id="svg_7"/>
   <path d="m34.23,16.91c0.15,-0.27 0.26,-0.52 0.43,-0.72c0.08,-0.09 0.29,-0.08 0.43,-0.12c0.02,0.14 0.11,0.34 0.05,0.4c-0.53,0.59 -0.55,1.15 0.01,1.73c0.06,0.07 -0.01,0.27 -0.02,0.41c-0.16,-0.04 -0.34,-0.06 -0.47,-0.14c-0.1,-0.07 -0.14,-0.23 -0.21,-0.34c-0.07,-0.11 -0.14,-0.22 -0.23,-0.36c-0.17,0.27 -0.29,0.53 -0.47,0.74c-0.07,0.09 -0.27,0.08 -0.4,0.12c-0.03,-0.14 -0.06,-0.27 -0.08,-0.41c0,-0.02 0.02,-0.05 0.04,-0.08c0.51,-0.52 0.56,-1.05 0.03,-1.59c-0.13,-0.14 -0.24,-0.33 0.02,-0.48c0.26,-0.15 0.37,0 0.48,0.2c0.12,0.21 0.24,0.41 0.38,0.64l0.01,0z" fill="white" id="svg_8"/>
   <path d="m32.08,18.14c-0.37,0.02 -0.81,-0.2 -0.9,0.41c-0.01,0.05 -0.22,0.12 -0.29,0.09c-0.1,-0.05 -0.23,-0.2 -0.21,-0.28c0.2,-0.72 0.41,-1.45 0.66,-2.16c0.1,-0.29 0.62,-0.3 0.72,-0.01c0.26,0.71 0.47,1.43 0.67,2.16c0.03,0.07 -0.1,0.24 -0.19,0.28c-0.09,0.03 -0.25,-0.04 -0.32,-0.11c-0.08,-0.09 -0.1,-0.24 -0.14,-0.38l0,0zm-0.63,-0.45c0.22,-0.01 0.35,-0.02 0.51,-0.03c-0.08,-0.3 -0.15,-0.54 -0.22,-0.78c-0.03,0 -0.05,0 -0.08,0c-0.06,0.25 -0.13,0.5 -0.21,0.81z" fill="white" id="svg_9"/>
   <path d="m29.21,16.54c-0.2,0 -0.33,0.02 -0.43,-0.03c-0.1,-0.05 -0.19,-0.17 -0.21,-0.27c-0.01,-0.07 0.13,-0.22 0.2,-0.22c0.49,-0.02 0.98,-0.02 1.47,0c0.07,0 0.18,0.15 0.19,0.23c0,0.09 -0.09,0.22 -0.17,0.26c-0.12,0.05 -0.27,0.02 -0.46,0.03c0,0.56 0,1.12 0,1.67c0,0.21 0.04,0.44 -0.28,0.45c-0.34,0.02 -0.31,-0.23 -0.31,-0.46c0,-0.54 0,-1.08 0,-1.66l0,0z" fill="white" id="svg_10"/>
   <path d="m36.43,17.36c0,0.31 0.02,0.63 -0.02,0.93c-0.01,0.14 -0.14,0.34 -0.25,0.36c-0.27,0.06 -0.29,-0.16 -0.29,-0.37c0,-0.64 -0.02,-1.28 0.01,-1.91c0.01,-0.12 0.18,-0.24 0.28,-0.35c0.09,0.12 0.24,0.23 0.25,0.36c0.04,0.33 0.02,0.65 0.02,0.98l0,0z" fill="white" id="svg_11"/>
  </g>
 </g>
</svg>
